svgs/light/comment-arrow-down.svg

<svg xmlns="http://www.w3.org/2000/svg" viewBox="0 0 512 512"><!-- Font Awesome Pro 6.0.0-alpha2 by @fontawesome - https://fontawesome.com License - https://fontawesome.com/license (Commercial License) --><path d="M324.687 228.688L272 281.375V144C272 135.156 264.844 128 256 128S240 135.156 240 144V281.375L187.312 228.688C181.062 222.438 170.937 222.438 164.687 228.688S158.437 245.063 164.687 251.312L244.687 331.312C247.812 334.438 251.906 336 256 336S264.187 334.438 267.312 331.312L347.312 251.312C353.562 245.062 353.562 234.937 347.312 228.688S330.937 222.438 324.687 228.688ZM256.033 32C114.678 32 0.068 125.125 0.068 240C0.068 287.625 19.941 331.25 52.935 366.25C38.062 405.75 7.066 439.125 6.566 439.5C-0.057 446.5 -1.807 456.75 1.943 465.5C5.816 474.25 14.316 480 23.939 480C85.431 480 133.926 454.25 163.047 433.75C192.043 442.75 223.289 448 256.033 448C397.39 448 512 354.875 512 240S397.39 32 256.033 32ZM256.033 416C227.787 416 199.791 411.75 172.795 403.25C163.279 400.182 152.873 401.789 144.726 407.588L144.674 407.625C121.678 423.875 86.181 442.875 42.062 447.25C54.06 432.125 71.808 406.75 82.806 377.625L82.935 377.285C87.219 366.014 84.726 353.287 76.506 344.463L76.308 344.25C47.312 313.75 32.064 277.625 32.064 240C32.064 143 132.551 64 256.033 64C379.517 64 480.004 143 480.004 240S379.517 416 256.033 416Z"/></svg>

<svg xmlns="http://www.w3.org/2000/svg" viewBox="0 0 512 512"><!--! Font Awesome Pro 6.3.0 by @fontawesome - https://fontawesome.com License - https://fontawesome.com/license (Commercial License) Copyright 2023 Fonticons, Inc. --><path d="M324.7 228.7L272 281.4V144C272 135.2 264.8 128 256 128S240 135.2 240 144v137.4L187.3 228.7c-6.25-6.25-16.38-6.25-22.62 0s-6.25 16.38 0 22.62l80 80C247.8 334.4 251.9 336 256 336s8.188-1.562 11.31-4.688l80-80c6.25-6.25 6.25-16.38 0-22.62S330.9 222.4 324.7 228.7zM256 32C114.7 32 .0273 125.1 .0273 240c0 47.63 19.91 91.25 52.91 126.3c-14.87 39.5-45.87 72.88-46.37 73.25c-6.623 7-8.373 17.25-4.623 26C5.816 474.3 14.38 480 24 480c61.49 0 109.1-25.75 139.1-46.25C192.1 442.8 223.3 448 256 448C397.4 448 512 354.9 512 240S397.4 32 256 32zM256 416c-28.25 0-56.24-4.25-83.24-12.75c-9.516-3.068-19.92-1.461-28.07 4.338c-22.1 16.25-58.54 35.29-102.7 39.66c11.1-15.12 29.75-40.5 40.74-69.63l.1289-.3398c4.283-11.27 1.791-23.1-6.43-32.82C47.51 313.1 32.06 277.6 32.06 240c0-97 100.5-176 223.1-176c123.5 0 223.1 79 223.1 176S379.5 416 256 416z"/></svg>
